static/img/icons/dashboard.svg

<svg fill="none" height="26" viewBox="0 0 26 26" width="26" xmlns="http://www.w3.org/2000/svg"><g stroke="#fff" stroke-linejoin="round" stroke-width="1.5"><path d="m19.6 1c1.7552.19429 2.9366.63338 3.8184 1.62575 1.5816 1.77994 1.5816 4.6447 1.5816 10.37425 0 5.7296 0 8.5943-1.5816 10.3743-.8818.9924-2.0632 1.4314-3.8184 1.6257m-13.19999 0c-1.75516-.1943-2.93659-.6333-3.81838-1.6257-1.58163-1.78-1.58163-4.6447-1.58163-10.3743 0-5.72955 0-8.59431 1.58163-10.37425.88179-.99237 2.06322-1.43146 3.81838-1.62575" stroke-linecap="round"/><path d="m11.75 10.2917v-1.6667c0-1.36978 0-2.05467-.3783-2.51566-.0693-.08438-.1467-.16177-.231-.23102-.461-.37832-1.14592-.37832-2.5157-.37832s-2.05468 0-2.51566.37832c-.08438.06925-.16177.14664-.23102.23102-.37832.46099-.37832 1.14588-.37832 2.51566v1.6667c0 1.3697 0 2.0546.37832 2.5156.06925.0845.14664.1618.23102.231.46098.3784 1.14588.3784 2.51566.3784s2.0547 0 2.5157-.3784c.0843-.0692.1617-.1465.231-.231.3783-.461.3783-1.1459.3783-2.5156z"/><path d="m9.45833 15.9167h-1.66666c-.58149 0-.87223 0-1.10881.0717-.53267.1616-.94951.5785-1.11109 1.1111-.07177.2366-.07177.5274-.07177 1.1089s0 .8722.07177 1.1088c.16158.5327.57842.9495 1.11109 1.1111.23658.0717.52732.0717 1.10881.0717h1.66666c.58147 0 .87227 0 1.10877-.0717.5327-.1616.9496-.5784 1.1112-1.1111.0717-.2366.0717-.5273.0717-1.1088s0-.8723-.0717-1.1089c-.1616-.5326-.5785-.9495-1.1112-1.1111-.2365-.0717-.5273-.0717-1.10877-.0717z"/><path d="m20.5 17.375v-1.6667c0-1.3697 0-2.0547-.3783-2.5157-.0693-.0844-.1466-.1617-.231-.231-.461-.3783-1.146-.3783-2.5157-.3783-1.3698 0-2.0547 0-2.5157.3783-.0844.0693-.1617.1466-.231.231-.3783.461-.3783 1.146-.3783 2.5157v1.6667c0 1.3697 0 2.0546.3783 2.5156.0693.0845.1466.1618.231.231.461.3784 1.1459.3784 2.5157.3784 1.3697 0 2.0547 0 2.5157-.3784.0844-.0692.1617-.1465.231-.231.3783-.461.3783-1.1459.3783-2.5156z"/><path d="m18.2083 5.5h-1.6666c-.5815 0-.8723 0-1.1089.07177-.5326.16158-.9495.57842-1.1111 1.11109-.0717.23658-.0717.52732-.0717 1.10881 0 .58148 0 .87222.0717 1.10881.1616.53266.5785.9495 1.1111 1.11112.2366.0717.5274.0717 1.1089.0717h1.6666c.5815 0 .8723 0 1.1089-.0717.5326-.16162.9495-.57846 1.1111-1.11112.0717-.23659.0717-.52733.0717-1.10881 0-.58149 0-.87223-.0717-1.10881-.1616-.53267-.5785-.94951-1.1111-1.11109-.2366-.07177-.5274-.07177-1.1089-.07177z"/></g></svg>

<svg width="26" height="26" viewBox="0 0 26 26" fill="none" xmlns="http://www.w3.org/2000/svg">
<path d="M19.6 1C21.3552 1.19429 22.5366 1.63338 23.4184 2.62575C25 4.40569 25 7.27045 25 13C25 18.7296 25 21.5943 23.4184 23.3743C22.5366 24.3667 21.3552 24.8057 19.6 25M6.40001 25C4.64485 24.8057 3.46342 24.3667 2.58163 23.3743C1 21.5943 1 18.7296 1 13C1 7.27045 1 4.40569 2.58163 2.62575C3.46342 1.63338 4.64485 1.19429 6.40001 1" stroke="white" stroke-width="1.5" stroke-linecap="round" stroke-linejoin="round"/>
<path d="M11.75 10.2917V8.625C11.75 7.25522 11.75 6.57033 11.3717 6.10934C11.3024 6.02496 11.225 5.94757 11.1407 5.87832C10.6797 5.5 9.99478 5.5 8.625 5.5C7.25522 5.5 6.57032 5.5 6.10934 5.87832C6.02496 5.94757 5.94757 6.02496 5.87832 6.10934C5.5 6.57033 5.5 7.25522 5.5 8.625V10.2917C5.5 11.6614 5.5 12.3463 5.87832 12.8073C5.94757 12.8918 6.02496 12.9691 6.10934 13.0383C6.57032 13.4167 7.25522 13.4167 8.625 13.4167C9.99478 13.4167 10.6797 13.4167 11.1407 13.0383C11.225 12.9691 11.3024 12.8918 11.3717 12.8073C11.75 12.3463 11.75 11.6614 11.75 10.2917Z" stroke="white" stroke-width="1.5" stroke-linejoin="round"/>
<path d="M9.45833 15.9167H7.79167C7.21018 15.9167 6.91944 15.9167 6.68286 15.9884C6.15019 16.15 5.73335 16.5669 5.57177 17.0995C5.5 17.3361 5.5 17.6269 5.5 18.2084C5.5 18.7899 5.5 19.0806 5.57177 19.3172C5.73335 19.8499 6.15019 20.2667 6.68286 20.4283C6.91944 20.5 7.21018 20.5 7.79167 20.5H9.45833C10.0398 20.5 10.3306 20.5 10.5671 20.4283C11.0998 20.2667 11.5167 19.8499 11.6783 19.3172C11.75 19.0806 11.75 18.7899 11.75 18.2084C11.75 17.6269 11.75 17.3361 11.6783 17.0995C11.5167 16.5669 11.0998 16.15 10.5671 15.9884C10.3306 15.9167 10.0398 15.9167 9.45833 15.9167Z" stroke="white" stroke-width="1.5" stroke-linejoin="round"/>
<path d="M20.5 17.375V15.7083C20.5 14.3386 20.5 13.6536 20.1217 13.1926C20.0524 13.1082 19.9751 13.0309 19.8907 12.9616C19.4297 12.5833 18.7447 12.5833 17.375 12.5833C16.0052 12.5833 15.3203 12.5833 14.8593 12.9616C14.7749 13.0309 14.6976 13.1082 14.6283 13.1926C14.25 13.6536 14.25 14.3386 14.25 15.7083V17.375C14.25 18.7447 14.25 19.4296 14.6283 19.8906C14.6976 19.9751 14.7749 20.0524 14.8593 20.1216C15.3203 20.5 16.0052 20.5 17.375 20.5C18.7447 20.5 19.4297 20.5 19.8907 20.1216C19.9751 20.0524 20.0524 19.9751 20.1217 19.8906C20.5 19.4296 20.5 18.7447 20.5 17.375Z" stroke="white" stroke-width="1.5" stroke-linejoin="round"/>
<path d="M18.2083 5.5H16.5417C15.9602 5.5 15.6694 5.5 15.4328 5.57177C14.9002 5.73335 14.4833 6.15019 14.3217 6.68286C14.25 6.91944 14.25 7.21018 14.25 7.79167C14.25 8.37315 14.25 8.66389 14.3217 8.90048C14.4833 9.43314 14.9002 9.84998 15.4328 10.0116C15.6694 10.0833 15.9602 10.0833 16.5417 10.0833H18.2083C18.7898 10.0833 19.0806 10.0833 19.3172 10.0116C19.8498 9.84998 20.2667 9.43314 20.4283 8.90048C20.5 8.66389 20.5 8.37315 20.5 7.79167C20.5 7.21018 20.5 6.91944 20.4283 6.68286C20.2667 6.15019 19.8498 5.73335 19.3172 5.57177C19.0806 5.5 18.7898 5.5 18.2083 5.5Z" stroke="white" stroke-width="1.5" stroke-linejoin="round"/>
</svg>
